X:1
T:An Chad Mhirt de Fhmhar
M:3/4
L:1/8
Q:60
K:D
(AG)|F (DD2) (EF)|G2B2B2|(A2G3)C|E (DD3)D|(D6|D2Z2FG|
A (dd2)(ed)|c2d2(cB)|A2G3C|E (DD3)D|(D6|D2z2AG|FDD2E2|
D4E2|D4(EF)|G2A3B|(E6|E2)z2(FG)|A (dd2)(ed)|c (dd2)cB|(A2G3)C|
E (DD2)D2|(D6|D2|)z2||
W:
W: An chad Mhirt de fhmhair ba brnach tuirseach mo scal.
W: Lmh thapa a bh crga ag gabhil rohmam ar leaba na n-ag.
W: Ar Charraig na nDeor is d gur chaill m mo radharc
W: Is go dt m faoi fhd is n thgfad m'aigne i do dhidh.
W:
W: T do mhthair is Niall faoi chian 's is fada leo an l.
W: D'fhg t osna ina gcliabh nach leigheasann dochtir n lia,
W: Ar sholthar m riamh is bodh s 'lig cruinn i mo lmh,
W: go dtabharfainn  uaim ach fuascladh-- Pada bheith sln.
W:
W: Tdo dheirfiracha crithe de ghnth is iad ag sileadh na sl
W: is gan fios c an l go brth an n-imeoidh a gcumha.
W: D'fhg t d'aicme faoi sml is nach nir liom mar rinne t an sil
W: muair nr agair t Prthas ar sps beag eile a thabhairt dinn.
